!!!OTL: 767. Dem Unveraenderlichen.
!!!COM: G. W. Fink
!!!ODT: 1811
!!!ARE: Europa, Mitteleuropa, Deutschland
!!!SCT: B0767
!!!TXL: @@DE
!!!YEM: Copyright 1995, estate of Helmut Schaffrath.
**kern	**text
*ICvox	*
*Ivox	*
*clefG2	*
*M3/4	*
*k[b-e-a-]	*
*E-:	*
!LO:TX:a:t=Etwas geſchwind.	!
{4b-	Dem
=1	=1
4.ee-	Ew'-
8dd	-gen
8cc	unſ'-
8b-	-re
=2	=2
8.b-L	Lie-
16a-J	.
4g}	-der,
{4b-	was
=3	=3
8.ee-	auch
16cc	das
4b-	Herʒ
8ddL	be-
8ccJ	.
=4	=4
4b-	-wegt;
4r}	.
{4b-	ver-
=5	=5
4.ee-	-traut,
8dd	vertraut,
8cc	.
8b-	ihr
=6	=6
8.b-L	Kin-
16a-J	.
4g}	-der
{4b-	dem,
=7	=7
8.ee-	der
16cc	die
4b-	Wol-
8ddL	-ken
8ccJ	.
=8	=8
4b-	trägt!
4r}	.
{8b-L	Er
8ddJ	.
=9	=9
4.ff	läßt
8ff	wohl
8ff	Blät-
8ee-	-ter
=10	=10
8.ee-L	ſter-
16ddJ	.
4dd}	-ben
{4cc	und
=11	=11
4.b-	Son-
16ccL	-nen
16b-J	.
8a-	ſich
8g	ver-
=12	=12
(4g	-glühn;
4f)}	.
{4b-	doch
=13	=13
4.ee-	keins
8dd	läßt
8cc	er
8b-	ver-
=14	=14
8.b-L	-der-
16a-J	.
4g}	-ben,
{4ee-	neu
=15	=15
8.ff	ſoll
16ff	es
4ee-	auf-
4dd	-er-
=16	=16
4.ee-	-blühn,
8r}	.
{8gL	neu
8a-J	.
=17	=17
8.b-	ſoll
16a-	es
4g	auf-
4f	-er-
=18	=18
2e-;}	-blühn.
==	==
!!!AGN: religioes
!!!GTL: Religioese Lieder
!!!ONB: ESAC (Essen Associative Code) Database: BOEHME
!!!AMT: simple triple
!!!AIN: vox
!!!EED: Helmut Schaffrath
!!!EEV: 1.0
!!@@COMMENT:"Text und Mel. von G. W. Fink, ʒuerſt in deſſen "Häuslichen Andachten. 1. Heft. Leipʒig. bei Peters. (1811.)"
!!@@END:
!!!Text: G. W. Fink
!!!URL-scan: https://archive.org/details/BoehmeVtLieder1895/page/n613/mode/2up
!!!ENC: Anna Maria Matuszewska
!!!EEV: 2024/19/07
*-	*-
